flaticon/household/television-1.svg

<svg xmlns="http://www.w3.org/2000/svg" width="32" height="32" viewBox="0 0 24 24">
    <path d="M 16 13.199219 L 14.328125 13.199219 C 14.371094 13.074219 14.398438 12.941406 14.398438 12.800781 C 14.398438 12.136719 13.863281 11.601562 13.199219 11.601562 L 12.398438 11.601562 L 12.398438 10.800781 L 21.601562 10.800781 L 21.601562 0 L 2.398438 0 L 2.398438 10.800781 L 11.601562 10.800781 L 11.601562 11.601562 L 10.800781 11.601562 C 10.136719 11.601562 9.601562 12.136719 9.601562 12.800781 C 9.601562 12.941406 9.628906 13.074219 9.671875 13.199219 L 0.800781 13.199219 L 0.800781 22 L 1.601562 22 L 1.601562 24 L 4 24 L 4 22 L 20 22 L 20 24 L 22.398438 24 L 22.398438 22 L 23.199219 22 L 23.199219 13.199219 Z M 3.199219 2 L 20.800781 2 L 20.800781 8.800781 L 3.199219 8.800781 Z M 20.800781 0.800781 L 20.800781 1.199219 L 3.199219 1.199219 L 3.199219 0.800781 Z M 3.199219 9.601562 L 20.800781 9.601562 L 20.800781 10 L 3.199219 10 Z M 10.398438 12.800781 C 10.398438 12.578125 10.578125 12.398438 10.800781 12.398438 L 13.199219 12.398438 C 13.421875 12.398438 13.601562 12.578125 13.601562 12.800781 C 13.601562 13.019531 13.421875 13.199219 13.199219 13.199219 L 10.800781 13.199219 C 10.578125 13.199219 10.398438 13.019531 10.398438 12.800781 Z M 8.800781 14 L 15.199219 14 L 15.199219 17.199219 L 8.800781 17.199219 Z M 1.601562 14 L 8 14 L 8 17.199219 L 1.601562 17.199219 Z M 3.199219 23.199219 L 2.398438 23.199219 L 2.398438 22 L 3.199219 22 Z M 8 21.199219 L 1.601562 21.199219 L 1.601562 18 L 8 18 Z M 15.199219 21.199219 L 8.800781 21.199219 L 8.800781 18 L 15.199219 18 Z M 21.601562 23.199219 L 20.800781 23.199219 L 20.800781 22 L 21.601562 22 Z M 22.398438 21.199219 L 16 21.199219 L 16 18 L 22.398438 18 Z M 16 17.199219 L 16 14 L 22.398438 14 L 22.398438 17.199219 Z M 16 17.199219"/>
    <path d="M5.601562 15.199219L4 15.199219C3.777344 15.199219 3.601562 15.378906 3.601562 15.601562 3.601562 15.820312 3.777344 16 4 16L5.601562 16C5.820312 16 6 15.820312 6 15.601562 6 15.378906 5.820312 15.199219 5.601562 15.199219zM4 20L5.601562 20C5.820312 20 6 19.820312 6 19.601562 6 19.378906 5.820312 19.199219 5.601562 19.199219L4 19.199219C3.777344 19.199219 3.601562 19.378906 3.601562 19.601562 3.601562 19.820312 3.777344 20 4 20zM12.800781 15.199219L11.199219 15.199219C10.980469 15.199219 10.800781 15.378906 10.800781 15.601562 10.800781 15.820312 10.980469 16 11.199219 16L12.800781 16C13.019531 16 13.199219 15.820312 13.199219 15.601562 13.199219 15.378906 13.019531 15.199219 12.800781 15.199219zM11.199219 20L12.800781 20C13.019531 20 13.199219 19.820312 13.199219 19.601562 13.199219 19.378906 13.019531 19.199219 12.800781 19.199219L11.199219 19.199219C10.980469 19.199219 10.800781 19.378906 10.800781 19.601562 10.800781 19.820312 10.980469 20 11.199219 20zM20 15.199219L18.398438 15.199219C18.179688 15.199219 18 15.378906 18 15.601562 18 15.820312 18.179688 16 18.398438 16L20 16C20.222656 16 20.398438 15.820312 20.398438 15.601562 20.398438 15.378906 20.222656 15.199219 20 15.199219zM18.398438 20L20 20C20.222656 20 20.398438 19.820312 20.398438 19.601562 20.398438 19.378906 20.222656 19.199219 20 19.199219L18.398438 19.199219C18.179688 19.199219 18 19.378906 18 19.601562 18 19.820312 18.179688 20 18.398438 20zM18.398438 20"/>
</svg>

<svg xmlns="http://www.w3.org/2000/svg" width="32" height="32" viewBox="0 0 24 24">
    <path d="M16 13.2h-1.672a1.197 1.197 0 0 0-1.129-1.598h-.8V10.8h9.203V0H2.398v10.8h9.204v.802H10.8a1.197 1.197 0 0 0-1.13 1.597H.802V22h.8v2H4v-2h16v2h2.398v-2h.801v-8.8zM3.2 2h17.6v6.8H3.2zM20.8.8v.4H3.2V.8zM3.2 9.603h17.6V10H3.2zm7.198 3.199c0-.223.18-.403.403-.403h2.398a.401.401 0 0 1 0 .8l-2.398.001a.401.401 0 0 1-.403-.398zM8.801 14h6.398v3.2H8.801zm-7.2 0H8v3.2H1.602zM3.2 23.2h-.8V22h.8zM8 21.2H1.602V18H8zm7.2 0H8.8V18h6.4zm6.402 2H20.8V22h.8zm.796-2H16V18h6.398zM16 17.2V14h6.398v3.2zm0 0"/>
    <path d="M5.602 15.2H4a.398.398 0 0 0-.398.402c0 .218.175.398.398.398h1.602a.4.4 0 0 0 0-.8zm0 0M4 20h1.602a.4.4 0 0 0 0-.8H4a.398.398 0 0 0-.398.402c0 .218.175.398.398.398zm0 0M12.8 15.2h-1.6a.401.401 0 0 0 0 .8h1.6a.4.4 0 0 0 0-.8zm0 0M11.2 20h1.6a.4.4 0 0 0 0-.8h-1.6a.401.401 0 0 0 0 .8zm0 0M20 15.2h-1.602a.401.401 0 0 0 0 .8H20c.223 0 .398-.18.398-.398a.398.398 0 0 0-.398-.403zm0 0M18.398 20H20c.223 0 .398-.18.398-.398a.398.398 0 0 0-.398-.403h-1.602a.401.401 0 0 0 0 .801zm0 0"/>
</svg>
